X: 3530
T: Big House, The
R: reel
M: 4/4
K: Gmajor
B2dB GBdB|cBAG FDEF|GBdB cdeg|f2af gedB|
GBdG ~G3B|cBAG FGAB|defg afge|dBcA BG~G2:|
B/c/d gf gdBd|cBAG FGAB|cdef gefg|abaf gdBc|
d2gf gd B/c/d|cBAG FGAB|defg afge|dBcA BG~G2:|

